flaticon/programming-line/binary-code.svg

<svg xmlns="http://www.w3.org/2000/svg" width="32" height="32" viewBox="0 0 24 24">
    <path d="M1.855469 4.835938C1.949219 4.835938 2.039062 4.800781 2.105469 4.734375 2.167969 4.667969 2.207031 4.578125 2.207031 4.484375 2.207031 4.394531 2.167969 4.300781 2.105469 4.238281 2.039062 4.171875 1.949219 4.132812 1.855469 4.132812 1.761719 4.132812 1.671875 4.171875 1.605469 4.238281 1.539062 4.300781 1.503906 4.390625 1.503906 4.484375 1.503906 4.578125 1.539062 4.667969 1.605469 4.734375 1.671875 4.800781 1.761719 4.835938 1.855469 4.835938zM2.980469 4.835938C3.074219 4.835938 3.167969 4.800781 3.230469 4.734375 3.296875 4.667969 3.335938 4.578125 3.335938 4.484375 3.335938 4.394531 3.296875 4.300781 3.230469 4.238281 3.167969 4.171875 3.074219 4.132812 2.980469 4.132812 2.890625 4.132812 2.796875 4.171875 2.734375 4.238281 2.667969 4.300781 2.628906 4.394531 2.628906 4.484375 2.628906 4.578125 2.667969 4.667969 2.734375 4.734375 2.796875 4.800781 2.890625 4.835938 2.980469 4.835938zM4.109375 4.835938C4.203125 4.835938 4.292969 4.800781 4.359375 4.734375 4.425781 4.667969 4.460938 4.578125 4.460938 4.484375 4.460938 4.394531 4.425781 4.300781 4.359375 4.238281 4.292969 4.171875 4.203125 4.132812 4.109375 4.132812 4.015625 4.132812 3.925781 4.171875 3.859375 4.238281 3.792969 4.300781 3.757812 4.394531 3.757812 4.484375 3.757812 4.578125 3.792969 4.667969 3.859375 4.734375 3.925781 4.800781 4.015625 4.835938 4.109375 4.835938zM5.613281 4.835938L19.890625 4.835938C20.085938 4.835938 20.242188 4.679688 20.242188 4.484375 20.242188 4.289062 20.085938 4.132812 19.890625 4.132812L5.613281 4.132812C5.417969 4.132812 5.261719 4.289062 5.261719 4.484375 5.261719 4.679688 5.417969 4.835938 5.613281 4.835938zM21.394531 4.835938L22.144531 4.835938C22.339844 4.835938 22.496094 4.679688 22.496094 4.484375 22.496094 4.289062 22.339844 4.132812 22.144531 4.132812L21.394531 4.132812C21.199219 4.132812 21.042969 4.289062 21.042969 4.484375 21.042969 4.679688 21.199219 4.835938 21.394531 4.835938zM4.109375 7.890625L3.359375 7.890625C2.542969 7.890625 1.878906 8.554688 1.878906 9.371094L1.878906 11.625C1.878906 12.441406 2.542969 13.105469 3.359375 13.105469L4.109375 13.105469C4.925781 13.105469 5.589844 12.441406 5.589844 11.625L5.589844 9.371094C5.589844 8.554688 4.925781 7.890625 4.109375 7.890625zM4.882812 11.625C4.882812 12.050781 4.535156 12.398438 4.109375 12.398438L3.359375 12.398438C2.929688 12.398438 2.582031 12.050781 2.582031 11.625L2.582031 9.371094C2.582031 8.941406 2.929688 8.59375 3.359375 8.59375L4.109375 8.59375C4.535156 8.59375 4.882812 8.941406 4.882812 9.371094zM16.109375 11.625L16.109375 9.371094C16.109375 8.554688 15.445312 7.890625 14.628906 7.890625L13.878906 7.890625C13.0625 7.890625 12.398438 8.554688 12.398438 9.371094L12.398438 11.625C12.398438 12.441406 13.0625 13.105469 13.878906 13.105469L14.628906 13.105469C15.445312 13.105469 16.109375 12.441406 16.109375 11.625zM15.40625 11.625C15.40625 12.050781 15.058594 12.398438 14.628906 12.398438L13.878906 12.398438C13.453125 12.398438 13.105469 12.050781 13.105469 11.625L13.105469 9.371094C13.105469 8.941406 13.453125 8.59375 13.878906 8.59375L14.628906 8.59375C15.058594 8.59375 15.40625 8.941406 15.40625 9.371094zM7.867188 13.902344L7.117188 13.902344C6.300781 13.902344 5.636719 14.566406 5.636719 15.382812L5.636719 17.636719C5.636719 18.453125 6.300781 19.117188 7.117188 19.117188L7.867188 19.117188C8.683594 19.117188 9.347656 18.453125 9.347656 17.636719L9.347656 15.382812C9.347656 14.566406 8.683594 13.902344 7.867188 13.902344zM8.640625 17.636719C8.640625 18.0625 8.292969 18.410156 7.867188 18.410156L7.117188 18.410156C6.6875 18.410156 6.339844 18.0625 6.339844 17.636719L6.339844 15.382812C6.339844 14.953125 6.6875 14.605469 7.117188 14.605469L7.867188 14.605469C8.292969 14.605469 8.640625 14.953125 8.640625 15.382812zM12.375 13.902344L11.625 13.902344C10.808594 13.902344 10.144531 14.566406 10.144531 15.382812L10.144531 17.636719C10.144531 18.453125 10.808594 19.117188 11.625 19.117188L12.375 19.117188C13.191406 19.117188 13.855469 18.453125 13.855469 17.636719L13.855469 15.382812C13.855469 14.566406 13.191406 13.902344 12.375 13.902344zM13.152344 17.636719C13.152344 18.0625 12.804688 18.410156 12.375 18.410156L11.625 18.410156C11.195312 18.410156 10.847656 18.0625 10.847656 17.636719L10.847656 15.382812C10.847656 14.953125 11.195312 14.605469 11.625 14.605469L12.375 14.605469C12.804688 14.605469 13.152344 14.953125 13.152344 15.382812zM19.890625 13.902344L19.140625 13.902344C18.324219 13.902344 17.660156 14.566406 17.660156 15.382812L17.660156 17.636719C17.660156 18.453125 18.324219 19.117188 19.140625 19.117188L19.890625 19.117188C20.707031 19.117188 21.371094 18.453125 21.371094 17.636719L21.371094 15.382812C21.371094 14.566406 20.707031 13.902344 19.890625 13.902344zM20.664062 17.636719C20.664062 18.0625 20.316406 18.410156 19.890625 18.410156L19.140625 18.410156C18.710938 18.410156 18.363281 18.0625 18.363281 17.636719L18.363281 15.382812C18.363281 14.953125 18.710938 14.605469 19.140625 14.605469L19.890625 14.605469C20.316406 14.605469 20.664062 14.953125 20.664062 15.382812zM6.738281 12.398438C6.546875 12.398438 6.386719 12.558594 6.386719 12.75 6.386719 12.945312 6.546875 13.105469 6.738281 13.105469L8.242188 13.105469C8.4375 13.105469 8.59375 12.945312 8.59375 12.75 8.59375 12.558594 8.4375 12.398438 8.242188 12.398438L7.84375 12.398438 7.84375 8.242188C7.84375 8.046875 7.6875 7.890625 7.492188 7.890625 7.296875 7.890625 7.140625 8.046875 7.140625 8.242188L7.140625 8.640625 6.738281 8.640625C6.546875 8.640625 6.386719 8.800781 6.386719 8.992188 6.386719 9.1875 6.546875 9.347656 6.738281 9.347656L7.140625 9.347656 7.140625 12.398438zM4.484375 18.410156L4.085938 18.410156 4.085938 14.253906C4.085938 14.058594 3.929688 13.902344 3.734375 13.902344 3.539062 13.902344 3.382812 14.058594 3.382812 14.253906L3.382812 14.652344 2.980469 14.652344C2.789062 14.652344 2.628906 14.8125 2.628906 15.007812 2.628906 15.199219 2.789062 15.359375 2.980469 15.359375L3.382812 15.359375 3.382812 18.410156 2.980469 18.410156C2.789062 18.410156 2.628906 18.570312 2.628906 18.761719 2.628906 18.957031 2.789062 19.117188 2.980469 19.117188L4.484375 19.117188C4.679688 19.117188 4.835938 18.957031 4.835938 18.761719 4.835938 18.570312 4.679688 18.410156 4.484375 18.410156zM16.507812 18.410156L16.109375 18.410156 16.109375 14.253906C16.109375 14.058594 15.953125 13.902344 15.757812 13.902344 15.5625 13.902344 15.40625 14.058594 15.40625 14.253906L15.40625 14.652344 15.007812 14.652344C14.8125 14.652344 14.652344 14.8125 14.652344 15.007812 14.652344 15.199219 14.8125 15.359375 15.007812 15.359375L15.40625 15.359375 15.40625 18.410156 15.007812 18.410156C14.8125 18.410156 14.652344 18.570312 14.652344 18.761719 14.652344 18.957031 14.8125 19.117188 15.007812 19.117188L16.507812 19.117188C16.703125 19.117188 16.859375 18.957031 16.859375 18.761719 16.859375 18.570312 16.703125 18.410156 16.507812 18.410156zM11.25 13.105469C11.441406 13.105469 11.601562 12.945312 11.601562 12.75 11.601562 12.558594 11.441406 12.398438 11.25 12.398438L10.847656 12.398438 10.847656 8.242188C10.847656 8.046875 10.691406 7.890625 10.496094 7.890625 10.300781 7.890625 10.144531 8.046875 10.144531 8.242188L10.144531 8.640625 9.746094 8.640625C9.550781 8.640625 9.394531 8.800781 9.394531 8.992188 9.394531 9.1875 9.550781 9.347656 9.746094 9.347656L10.144531 9.347656 10.144531 12.398438 9.746094 12.398438C9.550781 12.398438 9.394531 12.558594 9.394531 12.75 9.394531 12.945312 9.550781 13.105469 9.746094 13.105469zM18.761719 13.105469C18.957031 13.105469 19.117188 12.945312 19.117188 12.75 19.117188 12.558594 18.957031 12.398438 18.761719 12.398438L18.363281 12.398438 18.363281 8.242188C18.363281 8.046875 18.207031 7.890625 18.011719 7.890625 17.816406 7.890625 17.660156 8.046875 17.660156 8.242188L17.660156 8.640625 17.261719 8.640625C17.066406 8.640625 16.90625 8.800781 16.90625 8.992188 16.90625 9.1875 17.066406 9.347656 17.261719 9.347656L17.660156 9.347656 17.660156 12.398438 17.261719 12.398438C17.066406 12.398438 16.90625 12.558594 16.90625 12.75 16.90625 12.945312 17.066406 13.105469 17.261719 13.105469zM21.769531 12.398438L21.371094 12.398438 21.371094 8.242188C21.371094 8.046875 21.210938 7.890625 21.019531 7.890625 20.824219 7.890625 20.664062 8.046875 20.664062 8.242188L20.664062 8.640625 20.265625 8.640625C20.070312 8.640625 19.914062 8.800781 19.914062 8.992188 19.914062 9.1875 20.070312 9.347656 20.265625 9.347656L20.664062 9.347656 20.664062 12.398438 20.265625 12.398438C20.070312 12.398438 19.914062 12.558594 19.914062 12.75 19.914062 12.945312 20.070312 13.105469 20.265625 13.105469L21.769531 13.105469C21.964844 13.105469 22.121094 12.945312 22.121094 12.75 22.121094 12.558594 21.964844 12.398438 21.769531 12.398438zM21.769531 12.398438"/>
    <path d="M 22.144531 2.628906 L 1.855469 2.628906 C 0.832031 2.628906 0 3.460938 0 4.484375 L 0 19.515625 C 0 20.539062 0.832031 21.371094 1.855469 21.371094 L 22.144531 21.371094 C 23.167969 21.371094 24 20.539062 24 19.515625 L 24 4.484375 C 24 3.460938 23.167969 2.628906 22.144531 2.628906 Z M 1.855469 3.335938 L 22.144531 3.335938 C 22.777344 3.335938 23.296875 3.851562 23.296875 4.484375 L 23.296875 5.636719 L 0.703125 5.636719 L 0.703125 4.484375 C 0.703125 3.851562 1.222656 3.335938 1.855469 3.335938 Z M 22.144531 20.664062 L 1.855469 20.664062 C 1.222656 20.664062 0.703125 20.148438 0.703125 19.515625 L 0.703125 6.339844 L 23.296875 6.339844 L 23.296875 19.515625 C 23.296875 20.148438 22.777344 20.664062 22.144531 20.664062 Z M 22.144531 20.664062"/>
</svg>

<svg xmlns="http://www.w3.org/2000/svg" width="32" height="32" viewBox="0 0 24 24">
    <path d="M1.855 4.836a.351.351 0 0 0 .25-.102.369.369 0 0 0 .102-.25.355.355 0 0 0-.352-.352.355.355 0 0 0-.351.352c0 .094.035.184.101.25a.351.351 0 0 0 .25.102zm0 0M2.98 4.836a.355.355 0 0 0 .355-.352c0-.09-.038-.183-.105-.246a.346.346 0 0 0-.496 0 .346.346 0 0 0 0 .496.342.342 0 0 0 .246.102zm0 0M4.11 4.836a.351.351 0 0 0 .25-.102.351.351 0 0 0 .1-.25.355.355 0 0 0-.352-.352.355.355 0 0 0-.35.352c0 .094.035.184.101.25a.351.351 0 0 0 .25.102zm0 0M5.613 4.836h14.278a.35.35 0 0 0 .351-.352.35.35 0 0 0-.351-.351H5.613a.35.35 0 0 0-.351.351.35.35 0 0 0 .351.352zm0 0M21.395 4.836h.75a.35.35 0 0 0 .351-.352.35.35 0 0 0-.351-.351h-.75a.35.35 0 0 0-.352.351.35.35 0 0 0 .352.352zm0 0M4.11 7.89h-.75c-.817 0-1.481.665-1.481 1.481v2.254c0 .816.664 1.48 1.48 1.48h.75c.817 0 1.48-.664 1.48-1.48V9.371c0-.816-.663-1.48-1.48-1.48zm.773 3.735a.775.775 0 0 1-.774.773h-.75a.776.776 0 0 1-.777-.773V9.371c0-.43.348-.777.777-.777h.75c.426 0 .774.347.774.777zm0 0M16.11 11.625V9.371c0-.816-.665-1.48-1.481-1.48h-.75c-.816 0-1.48.664-1.48 1.48v2.254c0 .816.664 1.48 1.48 1.48h.75c.816 0 1.48-.664 1.48-1.48zm-.704 0a.776.776 0 0 1-.777.773h-.75a.775.775 0 0 1-.774-.773V9.371c0-.43.348-.777.774-.777h.75c.43 0 .777.347.777.777zm0 0M7.867 13.902h-.75c-.816 0-1.48.664-1.48 1.48v2.255c0 .816.664 1.48 1.48 1.48h.75c.817 0 1.48-.664 1.48-1.48v-2.254c0-.817-.663-1.48-1.48-1.48zm.774 3.735a.775.775 0 0 1-.774.773h-.75a.776.776 0 0 1-.777-.773v-2.254c0-.43.348-.778.777-.778h.75c.426 0 .774.348.774.778zm0 0M12.375 13.902h-.75c-.816 0-1.48.664-1.48 1.48v2.255c0 .816.664 1.48 1.48 1.48h.75c.816 0 1.48-.664 1.48-1.48v-2.254c0-.817-.664-1.48-1.48-1.48zm.777 3.735a.776.776 0 0 1-.777.773h-.75a.776.776 0 0 1-.777-.773v-2.254c0-.43.347-.778.777-.778h.75c.43 0 .777.348.777.778zm0 0M19.89 13.902h-.75c-.816 0-1.48.664-1.48 1.48v2.255c0 .816.664 1.48 1.48 1.48h.75c.817 0 1.481-.664 1.481-1.48v-2.254c0-.817-.664-1.48-1.48-1.48zm.774 3.735a.775.775 0 0 1-.773.773h-.75a.776.776 0 0 1-.778-.773v-2.254c0-.43.348-.778.778-.778h.75c.425 0 .773.348.773.778zm0 0M6.738 12.398a.355.355 0 0 0-.351.352c0 .195.16.355.351.355h1.504a.353.353 0 0 0 0-.707h-.398V8.242a.35.35 0 0 0-.352-.351.35.35 0 0 0-.351.351v.399h-.403a.355.355 0 0 0-.351.351c0 .195.16.356.351.356h.403v3.05zm0 0M4.484 18.41h-.398v-4.156a.35.35 0 0 0-.352-.352.35.35 0 0 0-.351.352v.398H2.98a.356.356 0 0 0-.351.356c0 .191.16.351.351.351h.403v3.051H2.98a.355.355 0 0 0-.351.352c0 .195.16.355.351.355h1.504a.353.353 0 0 0 0-.707zm0 0M16.508 18.41h-.399v-4.156a.35.35 0 0 0-.351-.352.35.35 0 0 0-.352.352v.398h-.398a.357.357 0 0 0-.356.356c0 .191.16.351.356.351h.398v3.051h-.398a.356.356 0 0 0-.356.352c0 .195.16.355.356.355h1.5a.353.353 0 0 0 0-.707zm0 0M11.25 13.105c.191 0 .352-.16.352-.355a.355.355 0 0 0-.352-.352h-.402V8.242a.35.35 0 0 0-.352-.351.35.35 0 0 0-.351.351v.399h-.399a.353.353 0 1 0 0 .707h.399v3.05h-.399a.353.353 0 1 0 0 .707zm0 0M18.762 13.105c.195 0 .355-.16.355-.355a.356.356 0 0 0-.355-.352h-.399V8.242a.35.35 0 0 0-.351-.351.35.35 0 0 0-.352.351v.399h-.398a.356.356 0 0 0-.356.351c0 .195.16.356.356.356h.398v3.05h-.398a.356.356 0 0 0-.356.352c0 .195.16.355.356.355zm0 0M21.77 12.398h-.399V8.242a.353.353 0 1 0-.707 0v.399h-.398a.353.353 0 1 0 0 .707h.398v3.05h-.398a.353.353 0 1 0 0 .707h1.504a.353.353 0 0 0 0-.707zm0 0"/>
    <path d="M22.145 2.629H1.855A1.857 1.857 0 0 0 0 4.484v15.032c0 1.023.832 1.855 1.855 1.855h20.29A1.857 1.857 0 0 0 24 19.516V4.484a1.857 1.857 0 0 0-1.855-1.855zm-20.29.707h20.29c.632 0 1.152.516 1.152 1.148v1.153H.703V4.484c0-.632.52-1.148 1.152-1.148zm20.29 17.328H1.855a1.154 1.154 0 0 1-1.152-1.148V6.34h22.594v13.176c0 .632-.52 1.148-1.152 1.148zm0 0"/>
</svg>
